!!!!SEGMENT: pl-cz--ii-15--005_szlagorski-walenty--walc-3.krn
!!!cenid: 18xx:1155
!!!COM: Szlagórski, Walenty
!!!COM-rismID: pe30111815
!!!CDT: 1801-1863/07/16
!!!CNT: Polish
!!!OTL: Walc 3
!!!PDT:
!!!AGN: Secular; Waltz
!!!SMS-siglum: PL-CZ
!!!SMS-shelfmark: II-15
!!!SMS-shelfwork: 005 W
!!!SMS-variant:
!!!SMS-altvar:
!!!NIFC-rismSourceID: 300001526
!!!NIFC-islandoraID: pl-cz:32533
!!!URL-pdf-islandora: https://repozytorium.nifc.pl/islandora/object/pl-cz%3A32533/datastream/PDF/view
!!!URL-scan:
!!!ONB-nifc: UWAGA: części: 1. Mazur (Morawski), 2. Mazur (Szlagórski), 3. Walc 1, 4. Walc 2, 5. Walc 3, 6. Walc 4, 7. Walc 5, 8. Mazur (Studziński), 9. Kotylion (Szlagórski), 10. Gallop (Szlagórski), 11. Mazur (Smacierzyński). UWAGA: dalsza część partii Basso z tyłu okładki
!!!AIN: 2 clars 1 clrno 2 cor 2 flt 2 violn
!!!key: d
**kern	**kern	**kern	**kern	**dynam	**kern	**kern	**kern	**kern	**dynam	**kern	**kern	**dynam
*part10	*part9	*part8	*part7	*part7	*part6	*part5	*part4	*part3	*part3	*part2	*part1	*part1
*group3	*group3	*group3	*group2	*group2	*group2	*group2	*group1	*group1	*group1	*group1	*group1	*group1
*staff10	*staff9	*staff8	*staff7	*	*staff6	*staff5	*staff4	*staff3	*	*staff2	*staff1	*
*I"Baſso	*I"Violino 2do	*I"Violino 1mo	*I"Clarino in G.	*	*I"[Corno 2do]	*I"Corno 1mo in D.	*I"Clarnetto 2do in C	*I"Clarnetto 1mo in C.	*	*I"[Flauto Secondo]	*I"Flauto Primo	*
*I'b	*I'vl 2	*I'vl 1	*I'clno in G	*	*I'cor 2	*I'cor 1 in D	*I'cl 2 in C	*I'cl 1 in C	*	*I'fl 2	*I'fl 1	*
*I	*Ivioln	*Ivioln	*Iclrno	*	*Icor	*Icor	*Iclars	*Iclars	*	*Iflt	*Iflt	*
*ICstr	*ICstr	*ICstr	*ICbras	*	*ICbras	*ICbras	*ICww	*ICww	*	*ICww	*ICww	*
*Gcont	*	*	*	*	*	*	*	*	*	*	*	*
*clefF4	*clefG2	*clefG2	*clefG2	*	*clefG2	*clefG2	*clefG2	*clefG2	*	*clefG2	*clefG2	*
*	*	*	*ITrd-1c-2	*	*ITrd-1c-2	*ITrd-1c-2	*	*	*	*	*	*
*k[f#]	*k[f#]	*k[f#]	*k[f#c#]	*	*k[f#c#]	*k[f#c#]	*k[f#]	*k[f#]	*	*k[f#]	*k[f#]	*
*d:	*d:	*d:	*d:	*	*d:	*d:	*d:	*d:	*	*d:	*d:	*
*M3/4	*M3/4	*M3/4	*M3/4	*	*M3/4	*M3/4	*M3/4	*M3/4	*	*M3/4	*M3/4	*
*>[A,A,B,B]	*>[A,A,B,B]	*>[A,A,B,B]	*>[A,A,B,B]	*>[A,A,B,B]	*>[A,A,B,B]	*>[A,A,B,B]	*>[A,A,B,B]	*>[A,A,B,B]	*>[A,A,B,B]	*>[A,A,B,B]	*>[A,A,B,B]	*>[A,A,B,B]
*2\right	*2\right	*2\right	*2\right	*2\right	*2\right	*2\right	*2\right	*2\right	*2\right	*2\right	*2\right	*2\right
*>A	*>A	*>A	*>A	*>A	*>A	*>A	*>A	*>A	*>A	*>A	*>A	*>A
!	!	!	!	!	!LO:TX:t=P:problem:brak partii w źródle	!	!	!	!	!LO:TX:t=P:problem:brak partii w źródle	!	!
4r	4r	4r	4r	.	4ryy	4r	4ryy	4dd'\	p	4ryy	4ddd'\	.
=1	=1	=1	=1	=1	=1	=1	=1	=1	=1	=1	=1	=1
!	!	!	!LO:TX:a:t=16	!	!	!LO:TX:a:t=16	!LO:TX:a:t=16	!	!	!	!	!
!	!	!	!LO:N:vis=00	!	!	!	!	!	!	!	!	!
4G\	4r	4r	0.r	.	2.ryy	2.r	2.r	4ee'\	.	2.ryy	4eee'\	.
4r	4d 4B/	4g/	.	.	.	.	.	4r	.	.	4r	.
4r	4d 4B/	4g/	.	.	.	.	.	4dd\	.	.	4ddd'\	.
=2	=2	=2	=2	=2	=2	=2	=2	=2	=2	=2	=2	=2
4G\	4r	4r	.	.	2.ryy	2.r	2.r	4cc'\	.	2.ryy	4ccc'\	.
4r	4d 4B/	4g/	.	.	.	.	.	4r	.	.	4r	.
4r	4d 4B/	4g/	.	.	.	.	.	4b'\	.	.	4bb'\	.
=3	=3	=3	=3	=3	=3	=3	=3	=3	=3	=3	=3	=3
4G\	4r	4r	.	.	2.ryy	2.r	2.r	2.a/	.	2.ryy	2.aa\	<
4r	4d 4B/	4g/	.	.	.	.	.	.	.	.	.	.
4r	4d 4B/	4g/	.	.	.	.	.	.	.	.	.	[[
=4	=4	=4	=4	=4	=4	=4	=4	=4	=4	=4	=4	=4
4G\	4r	4r	.	.	2.ryy	2.r	2.r	4g/	.	2.ryy	4gg\	>]
4r	4d 4B/	4g/	.	.	.	.	.	4r	.	.	4r	.
4r	4d 4B/	4g/	.	.	.	.	.	4r	.	.	4r	.
=5	=5	=5	=5	=5	=5	=5	=5	=5	=5	=5	=5	=5
!	!	!	!LO:N:vis=00	!	!	!	!	!	!	!	!	!
4C/	4r	4r	0.r	.	2.ryy	2.r	2.r	4ff#'\	.	2.ryy	4fff#'\	.
4r	4e 4c/	4a 4e\	.	.	.	.	.	4r	.	.	4r	.
4r	4e 4c/	4a 4e\	.	.	.	.	.	4ee'\	.	.	4eee'\	.
=6	=6	=6	=6	=6	=6	=6	=6	=6	=6	=6	=6	=6
4C/	4r	4r	.	.	2.ryy	2.r	2.r	4dd'\	.	2.ryy	4ddd'\	.
4r	4e 4c/	4a 4e\	.	.	.	.	.	4r	.	.	4r	.
4r	4e 4c/	4a 4e\	.	.	.	.	.	4cc'\	.	.	4ccc\	.
!	!	!LO:LB:g=original	!	!	!	!	!	!	!	!	!	!
=7	=7	=7	=7	=7	=7	=7	=7	=7	=7	=7	=7	=7
4AA/	4r	4r	.	.	2.ryy	2.r	2.r	2.b\	.	2.ryy	2.bb\	<[
4r	4e 4c/	4a 4e\	.	.	.	.	.	.	.	.	.	.
4r	4e 4c/	4a 4e\	.	.	.	.	.	.	.	.	.	.
!	!	!	!	!	!	!	!	!	!	!	!LO:LB:g=original	!
=8	=8	=8	=8	=8	=8	=8	=8	=8	=8	=8	=8	=8
4AA/	4r	4r	.	.	2.ryy	2.r	2.r	4a/	.	2.ryy	4aa\	.
4r	4e 4c/	4a 4e\	.	.	.	.	.	4r	.	.	4r	.
4r	4e 4c/	4a 4e\	.	.	.	.	.	4r	.	.	4r	.
!LO:LB:g=original	!LO:LB:g=original	!	!	!	!	!	!	!	!	!	!	!
=9	=9	=9	=9	=9	=9	=9	=9	=9	=9	=9	=9	=9
!	!	!	!LO:N:vis=00	!	!	!	!	!	!	!	!	!
4D\	4r	4r	0.r	.	2.ryy	2.r	2.r	4dd\	.	2.ryy	4ddd\	.
4r	4e 4c/	4f# 4A/	.	.	.	.	.	4r	.	.	4r	.
4r	4e 4c/	4f# 4A/	.	.	.	.	.	4cc\	.	.	4ccc\	.
!	!	!	!	!	!	!	!	!LO:LB:g=original	!	!	!	!
=10	=10	=10	=10	=10	=10	=10	=10	=10	=10	=10	=10	=10
4D\	4r	4r	.	.	2.ryy	2.r	2.r	4b\	.	2.ryy	4bb\	.
4r	4d 4c/	4f# 4A/	.	.	.	.	.	4r	.	.	4r	.
4r	4d 4c/	4f# 4A/	.	.	.	.	.	4a\	.	.	4aa\	.
=11	=11	=11	=11	=11	=11	=11	=11	=11	=11	=11	=11	=11
4D\	4r	4r	.	.	2.ryy	2.r	2.r	2.g/	.	2.ryy	2.gg\	.
4r	4d 4c/	4f# 4A/	.	.	.	.	.	.	.	.	.	.
4r	4d 4c/	4f# 4A/	.	.	.	.	.	.	.	.	.	.
=12	=12	=12	=12	=12	=12	=12	=12	=12	=12	=12	=12	=12
*	*	*rep	*	*	*	*	*	*	*	*	*	*
4D\	4r	4r	.	.	2.ryy	2.r	2.r	4f#/	.	2.ryy	4ff#\	.
4r	4d 4c/	4f# 4A/	.	.	.	.	.	4r	.	.	4r	.
4r	4d 4c/	4f# 4A/	.	.	.	.	.	4r	.	.	4r	.
*	*	*Xrep	*	*	*	*	*	*	*	*	*	*
=13	=13	=13	=13	=13	=13	=13	=13	=13	=13	=13	=13	=13
*	*	*rep	*	*	*	*	*	*	*	*	*	*
!	!	!	!LO:N:vis=00	!	!	!	!	!	!	!	!	!
4D\	4r	4r	4%11r	.	2.ryy	2.r	2.r	4ff#\	.	2.ryy	4fff#\	.
4r	4d 4c/	4f# 4A/	.	.	.	.	.	4r	.	.	4r	.
4r	4d 4c/	4f# 4A/	.	.	.	.	.	4ee\	.	.	4eee\	.
*	*	*Xrep	*	*	*	*	*	*	*	*	*	*
=14	=14	=14	=14	=14	=14	=14	=14	=14	=14	=14	=14	=14
*	*	*rep	*	*	*	*	*	*	*	*	*	*
4D\	4r	4r	.	.	2.ryy	2.r	2.r	4dd\	.	2.ryy	4ddd\	.
4r	4d 4c/	4f# 4A/	.	.	.	.	.	4cc\	.	.	4ccc\	.
4r	4d 4c/	4f# 4A/	.	.	.	.	.	4a\	.	.	4aa\	.
*	*	*Xrep	*	*	*	*	*	*	*	*	*	*
!	!	!LO:LB:g=original	!	!	!	!	!	!	!	!	!	!
=15	=15	=15	=15	=15	=15	=15	=15	=15	=15	=15	=15	=15
4G\	4r	4r	.	.	2.ryy	2.r	2.r	4g/	.	2.ryy	4gg\	.
4r	4d 4B/	4g/	.	.	.	.	.	4r	.	.	4r	.
4r	4d 4B/	4g/	.	.	.	.	.	4b\	.	.	4bb\	.
=16	=16	=16	=16	=16	=16	=16	=16	=16	=16	=16	=16	=16
!	!LO:TX:t=P:problem:przed dwudźwiękiem zbędna 4r	!	!	!	!	!	!	!	!	!	!	!
4G\	4d 4B/	4g/	.	.	2ryy	2r	2r	2g/	.	2ryy	2gg\	.
!LO:N:vis=4	!	!	!	!	!	!	!	!	!	!	!	!
8r	4d 4B/	4g/	.	.	.	.	.	.	.	.	.	.
!LO:N:vis=4	!	!	!	!	!	!	!	!	!	!	!	!
8r	.	.	.	.	.	.	.	.	.	.	.	.
!	!LO:LB:g=original	!	!	!	!	!	!	!LO:TX:a:rj:t=Fine	!	!	!	!
=17:|!|:	=17:|!|:	=17:|!|:	=17:|!|:	=17:|!|:	=17:|!|:	=17:|!|:	=17:|!|:	=17:|!|:;	=17:|!|:	=17:|!|:	=17:|!|:	=17:|!|:
*>B	*>B	*>B	*>B	*>B	*>B	*>B	*>B	*>B	*>B	*>B	*>B	*>B
!	!LO:TX:t=P:problem:po znaku repetycji 4r i kreska taktowa	!	!	!LO:DY:rj	!	!	!	!	!	!	!	!
4BB/	4r	4b\	4ff#\	ff	2.ryy	4ff#\	4f#/	4dd#X\	.	2.ryy	4bb\	.
!	!LO:LB:g=original	!	!	!	!	!	!	!	!	!	!	!
4r	4b 4a/	8b\L	4ff#\	.	.	4ff#\	4f#/	4dd#\	.	.	8bb\L	.
.	.	8b\J	.	.	.	.	.	.	.	.	8bb\J	.
4r	4b 4a/	4b\	4ff#\	.	.	4ff#\	4f#/	4dd#\	.	.	4bb\	.
!	!	!	!	!	!	!	!	!	!	!	!LO:LB:g=original	!
=18	=18	=18	=18	=18	=18	=18	=18	=18	=18	=18	=18	=18
4BB/	4r	4b\	4ff#\	.	2.ryy	4ff#\	4f#/	4dd#X\	.	2.ryy	4bb\	.
4r	4b 4a/	4cc#X\	4r	.	.	4r	4r	4r	.	.	4ccc#X\	.
4r	4b 4a/	4dd#X\	4r	.	.	4r	4r	4r	.	.	4ddd#X\	.
!LO:LB:g=original	!	!	!	!	!	!	!	!	!	!	!	!
=19	=19	=19	=19	=19	=19	=19	=19	=19	=19	=19	=19	=19
4E\	4r	2ee\	4ee\	.	2.ryy	4gg\	4g/	4ee\	.	2.ryy	2eee\	.
4r	4b 4g/	.	4ee\	.	.	4gg\	4g/	4ee\	.	.	.	.
4r	4b 4g/	4ff#\	4ee\	.	.	4gg\	4g/	4ee\	.	.	4fff#\	.
!	!	!	!	!	!	!	!	!LO:LB:g=original	!	!	!	!
=20	=20	=20	=20	=20	=20	=20	=20	=20	=20	=20	=20	=20
4E\	4r	2gg\	4ee\	.	2.ryy	4gg\	4g/	4ee\	.	2.ryy	2ggg\	.
4r	4b 4g/	.	4r	.	.	4r	4r	4r	.	.	.	.
4r	4b 4g/	4ee\	4r	.	.	4r	4r	4r	.	.	4eee\	.
=21	=21	=21	=21	=21	=21	=21	=21	=21	=21	=21	=21	=21
!	!	!	!	!	!	!	!	!LO:SIC:v:s=4cc#\	!	!	!	!
4A\	4r	4a\	4a/	.	2.ryy	4ee\	4g/	4cc\	.	2.ryy	4aa\	.
!	!	!	!	!	!	!	!	!LO:SIC:v:s=4cc#\	!	!	!	!
4r	4a 4g/	8a\L	4a/	.	.	4ee\	4g/	4cc\	.	.	4aa\	.
.	.	8a\J	.	.	.	.	.	.	.	.	.	.
!	!	!	!	!	!	!	!	!LO:SIC:v:s=4cc#\	!	!	!	!
4r	4a 4g/	4a\	4a/	.	.	4ee\	4g/	4cc\	.	.	4aa\	.
=22	=22	=22	=22	=22	=22	=22	=22	=22	=22	=22	=22	=22
!	!	!	!	!	!	!	!	!LO:SIC:v:s=4cc#\	!	!	!	!
4AA/	4r	4a\	4a/	.	2.ryy	4ee\	4g/	4cc\	.	2.ryy	4aa\	.
4r	4a 4g/	4b\	4r	.	.	4r	4r	4r	.	.	4bb\	.
4r	4a 4g/	4cc#X\	4r	.	.	4r	4r	4r	.	.	4ccc#X\	.
!	!	!LO:LB:g=original	!	!	!	!	!LO:LB:g=original	!	!	!	!	!
=23	=23	=23	=23	=23	=23	=23	=23	=23	=23	=23	=23	=23
4D\	4r	2dd\	4d/	.	2.ryy	4dd\	4f#/	4dd\	.	2.ryy	2ddd\	.
4r	4a 4f#/	.	4d/	.	.	4dd\	4f#/	4dd\	.	.	.	.
4r	4a 4f#/	4ee\	4d/	.	.	4dd\	4f#/	4dd\	.	.	4eee\	.
!	!	!	!LO:LB:g=original	!	!	!	!	!	!	!	!	!
=24	=24	=24	=24	=24	=24	=24	=24	=24	=24	=24	=24	=24
4D\	4r	2ff#\	4d/	.	2.ryy	4dd\	4f#/	4dd\	.	2.ryy	2fff#\	.
4r	4a 4f#/	.	4r	.	.	4r	4r	4r	.	.	.	.
4r	4a 4f#/	4dd\	4r	.	.	4r	4r	4r	.	.	4ddd\	.
!	!LO:LB:g=original	!	!	!	!	!	!LO:LB:g=original	!	!	!	!	!
=25	=25	=25	=25	=25	=25	=25	=25	=25	=25	=25	=25	=25
.	.	8qdd/	.	.	.	.	.	.	.	.	.	.
!	!	!	!LO:TX:a:t=1	!	!	!	!LO:TX:a:t=6	!LO:TX:a:t=6	!	!	!	!
!	!	!	!	!	!	!	!LO:N:vis=00	!LO:N:vis=00	!	!	!	!
4A\	4r	2.bb\	2.r	.	2.ryy	4r	0.r	0.r	.	2.ryy	2.bb\	.
4r	4a 4g/	.	.	.	.	4ee\	.	.	.	.	.	.
4r	4a 4g/	.	.	.	.	4ee\	.	.	.	.	.	.
!	!	!	!	!	!	!LO:LB:g=original	!	!	!	!	!	!
=26	=26	=26	=26	=26	=26	=26	=26	=26	=26	=26	=26	=26
4AA/	4r	4aa\	4A/	.	2.ryy	4ee\	.	.	.	2.ryy	4aa\	.
4r	4a 4g/	4a\	8a/L	.	.	4r	.	.	.	.	4a/	.
.	.	.	8a/J	.	.	.	.	.	.	.	.	.
!	!	!LO:SIC:v:s=4cc#\	!	!	!	!	!	!	!	!	!LO:SIC:v:s=4cc#/	!
4r	4a 4g/	4cc\	4a/	.	.	4r	.	.	.	.	4cc/	.
!	!	!	!	!	!	!	!	!	!	!	!LO:LB:g=original	!
=27	=27	=27	=27	=27	=27	=27	=27	=27	=27	=27	=27	=27
!	!	!	!LO:TX:a:t=1	!	!	!	!	!	!	!	!	!
.	.	8qdd/	.	.	.	.	.	.	.	.	.	.
4D\	4r	2.bb\	2.r	.	2.ryy	4r	.	.	.	2.ryy	2.bb\	.
4r	4a 4f#/	.	.	.	.	4ff#\	.	.	.	.	.	.
4r	4a 4f#/	.	.	.	.	4ff#\	.	.	.	.	.	.
=28	=28	=28	=28	=28	=28	=28	=28	=28	=28	=28	=28	=28
4d\	4r	4aa\	4d/	.	2.ryy	4ff#\	.	.	.	2.ryy	4aa\	.
4r	4a 4f#/	4dd\	8dd\L	.	.	4r	.	.	.	.	4dd\	.
.	.	.	8dd\J	.	.	.	.	.	.	.	.	.
4r	4a 4f#/	4ff#\	4dd\	.	.	4r	.	.	.	.	4ff#\	.
=29	=29	=29	=29	=29	=29	=29	=29	=29	=29	=29	=29	=29
!	!	!	!LO:TX:a:t=1	!	!	!	!LO:N:vis=0	!LO:N:vis=0	!	!	!	!
4AA/	4r	2bb\	2.r	.	2.ryy	4r	1.r	1.r	.	2.ryy	2bb\	.
4r	4a 4g/	.	.	.	.	4ee\	.	.	.	.	.	.
4r	4a 4g/	4aa\	.	.	.	4ee\	.	.	.	.	4aa\	.
!LO:LB:g=original	!	!	!	!	!	!	!	!	!	!	!	!
=30	=30	=30	=30	=30	=30	=30	=30	=30	=30	=30	=30	=30
4A\	4r	2a/	4a/	.	2.ryy	4r	.	.	.	2.ryy	2a/	.
4r	4a 4g/	.	8a/L	.	.	4ee\	.	.	.	.	.	.
.	.	.	8a/J	.	.	.	.	.	.	.	.	.
4r	4a 4g/	4aa\	4a/	.	.	4ee\	.	.	.	.	4aa\	.
!	!	!LO:LB:g=original	!	!	!	!	!	!	!	!	!	!
=31	=31	=31	=31	=31	=31	=31	=31	=31	=31	=31	=31	=31
4D\	4r	2.dd\	4ff#\	.	2.ryy	4r	4f#/	4dd\	.	2.ryy	2.dd\	.
4D\	4a 4f#/	.	8dd\L	.	.	4dd\	4f#/	4dd\	.	.	.	.
.	.	.	8a\J	.	.	.	.	.	.	.	.	.
4D\	4a 4f#/	.	4f#/	.	.	4dd\	4f#/	4dd\	.	.	.	.
=32	=32	=32	=32	=32	=32	=32	=32	=32	=32	=32	=32	=32
2D\	2a 2f#/	4ddd 4dd\	2d/	.	2.ryy	2dd\	2f#/	2dd\	.	2.ryy	4ddd\	.
.	.	4r	.	.	.	.	.	.	.	.	4r	.
4r	4r	4r	4r	.	.	4r	4r	4r	.	.	4r	.
==	=:|!	==	==	==	==	==	==	==	==	==	==	==
*-	*-	*-	*-	*-	*-	*-	*-	*-	*-	*-	*-	*-
!!!system-decoration: [(g1)][(g2)][(g3)]
!!!ENC: Katarzyna Serwa
!!!END: 2021-10-29
!!!ENC: Berenika Jozajtis
!!!END: 2020-11-06
